X:1
T:Title
%%score { ( 1 3 ) | ( 2 4 ) }
L:1/8
M:4/4
K:C
V:1 treble nm="Grand Piano"
V:3 treble 
V:2 bass 
V:4 bass 
V:1
 z4 z2[Q:1/4=100] [EG]2 | [Ec]2 [DB]>[Ec] d2 c>A | [EG]6 [CE][DF] | [EG]2 [FA][EG] G2 AB | %4
[M:3/4] [Ec]6 |[M:1/4] [EG]2 |[M:4/4] [Ec]2 [DB]>[Ec] d2 c>A | [EG]6 [CE][DF] | %8
 [EG]2 [FA][EG] [B,DG]2 [DFA][DFB] |[M:3/4] [CEc]6 |[M:1/4] B>c |[M:4/4] d6 z2 | e6 z2 | %13
 [CFA]2 [CFA][CFA] [CAc]2 [CGB]>[CFA] | [EG]6 z2 | d6 z2 | e6 z2 | [CFA]4 [CAc]3 [Fc] | %18
[M:3/4] [Ec]6 |] %19
V:2
 z4 z2 [C,C]2 | [C,G,]2 [C,G,]>[C,G,] [F,A,F]2 [F,A,F]>[F,CF] | [C,C]6 [C,G,]2 | %3
 [C,C]2 [C,C][C,C][K:treble] [G,B,D]2 [G,DF][G,DF] |[M:3/4][K:bass] [C,C]6 |[M:1/4] [C,C]2 | %6
[M:4/4] [C,G,]2 [C,G,]>[C,G,] [F,A,F]2 [F,A,F]>[F,CF] | [C,C]6 [C,G,][C,G,] | %8
 [C,C]2 [C,C][C,C] G,2 G,G, |[M:3/4] C,6 |[M:1/4][K:treble] D>E |[M:4/4] F6 z2 | G6[K:bass] z2 | %13
 F,2 F,F, F,2 F,>F, | C,2 C,>C, C,2[K:treble] D>E | F6 z2 | G6[K:bass] z2 | F,4 F,3 [F,A,] | %18
[M:3/4] [C,G,]6 |] %19
V:3
 x8 | x8 | x8 | x8 |[M:3/4] x6 |[M:1/4] x2 |[M:4/4] x8 | x8 | x8 |[M:3/4] x6 |[M:1/4] x2 | %11
[M:4/4] z2 B,>B, B,2 c>d | z2 C>C C2 [CEG]2 | x8 | C2 C>C C2 B>c | z2 B,>B, B,2 c>d | %16
 z2 C>C C2 [CEG]2 | x8 |[M:3/4] x6 |] %19
V:4
 x8 | x8 | x8 | x4[K:treble] x4 |[M:3/4][K:bass] x6 |[M:1/4] x2 |[M:4/4] x8 | x8 | x8 |[M:3/4] x6 | %10
[M:1/4][K:treble] x2 |[M:4/4] z2 G,>G, G,2 E>F | z2[K:bass] C,>C, C,2 C,2 | x8 | x6[K:treble] x2 | %15
 z2 G,>G, G,2 E>F | z2[K:bass] C,>C, C,2 C,2 | x8 |[M:3/4] x6 |] %19

